X:19
T:Capt' Catton's Maggot. JJo8.019
B:J.Johnson Choice Collection Vol 8 1758
Z:vmp.Simon Wilson 2013 www.village-music-project.org.uk
M:6/8
L:1/8
Q:3/8=120
K:Bb
|:F|B2B Bdf|e3d2c|Bdf Acf|Bgf edc|
B2B Bdf|e3d2c|d=ef cf=e|f3-f2:|
|:f|fga bfe|dcBg3|GAB cde|fed cdB|
bfe dcB|AGFe3|GAB cBA|B3-B2:|
